htdocs/bitrix/js/ui/icons/service/images/ui-service-calltracking.svg

<svg xmlns="http://www.w3.org/2000/svg" viewBox="0 0 25 24">
  <path fill="#FFFFFF" d="M3.64520413 8.06803763L2.59244706 8.01064973C2.26177859 7.9926077 1.93742992 8.10310235 1.68749186 8.3202182 1.17711669 8.76341996.361046483 9.6202631.110394891 10.7368298-.263390953 12.4016905.314259545 14.4403371 1.80930099 16.4789836 3.30434243 18.5176301 6.09045873 21.7794646 11.0171539 23.1725737 12.6047499 23.6214837 13.8536248 23.3188466 14.8171911 22.7024618 15.5803584 22.2143079 16.1064311 21.4307541 16.2960253 20.5449622L16.4641117 19.7598794C16.5175242 19.5103491 16.3908223 19.2571492 16.1590282 19.1503241L12.6010803 17.5103349C12.3701017 17.4039175 12.0962095 17.4711929 11.9408647 17.6725092L10.544086 19.4832351C10.438586 19.6200283 10.2579619 19.6742563 10.0948702 19.6169703 9.13833725 19.2807975 5.93419647 17.9388584 4.17606769 14.5522588 4.09982231 14.4053743 4.11878173 14.2270946 4.22693193 14.1018198L5.56183768 12.557545C5.69822314 12.3998557 5.73267626 12.1781529 5.65072267 11.9865201L4.11704888 8.3984003C4.03540108 8.20737912 3.85243256 8.07935211 3.64520413 8.06803763zM16.0094127 0C12.2346254 0 9.14616305 3.08846234 9.14616305 6.86324964L7.45841319 6.86324964C7.29272776 6.86324964 7.15841318 6.99756422 7.15841318 7.16324965 7.15841318 7.22816072 7.17946655 7.29132081 7.21841319 7.34324966L10.050038 11.1187494C10.1494492 11.2512977 10.3374897 11.2781606 10.470038 11.1787494 10.4927797 11.1616931 10.5129817 11.1414911 10.530038 11.1187494L13.3616628 7.34324966C13.4610741 7.21070131 13.4342111 7.0226609 13.3016628 6.92324964 13.2497339 6.884303 13.1865739 6.86324964 13.1216628 6.86324964L11.4339129 6.86324964C11.4339129 4.32384727 13.4700103 2.28774988 16.0094127 2.28774988L16.0094127 0zM21.0875198 2.75921262L18.255895 6.53471235C18.1564837 6.66726069 18.1833466 6.85530111 18.315895 6.95471236 18.3678238 6.993659 18.4309839 7.01471237 18.495895 7.01471237L20.1836448 7.01471237C20.1836448 9.55411473 18.1475474 11.5902121 15.6081451 11.5902121L15.6081451 13.877962C19.3829324 13.877962 22.4713947 10.7894997 22.4713947 7.01471237L24.1591446 7.01471237C24.32483 7.01471237 24.4591446 6.88039779 24.4591446 6.71471235 24.4591446 6.64980129 24.4380912 6.5866412 24.3991446 6.53471235L21.5675198 2.75921262C21.4681085 2.62666427 21.2800681 2.59980136 21.1475198 2.69921262 21.1247781 2.71626889 21.104576 2.73647092 21.0875198 2.75921262z"/>
</svg>

<svg xmlns="http://www.w3.org/2000/svg" width="42" height="42" viewBox="-9 -9 42 42"><path fill="#FFF" d="M3.645 8.068l-1.053-.057a1.273 1.273 0 0 0-.905.31c-.51.442-1.326 1.3-1.577 2.416-.373 1.665.204 3.703 1.7 5.742 1.494 2.039 4.28 5.3 9.207 6.694 1.588.448 2.837.146 3.8-.47a3.399 3.399 0 0 0 1.479-2.158l.168-.785a.545.545 0 0 0-.305-.61l-3.558-1.64a.546.546 0 0 0-.66.163l-1.397 1.81a.4.4 0 0 1-.45.134c-.956-.336-4.16-1.678-5.918-5.065a.404.404 0 0 1 .05-.45l1.336-1.544a.545.545 0 0 0 .089-.571L4.117 8.398a.546.546 0 0 0-.472-.33zM16.01 0c-3.774 0-6.863 3.088-6.863 6.863H7.458a.3.3 0 0 0-.24.48l2.832 3.776a.3.3 0 0 0 .48 0l2.832-3.776a.3.3 0 0 0-.24-.48h-1.688a4.56 4.56 0 0 1 4.575-4.575V0zm5.079 2.76l-2.832 3.775a.3.3 0 0 0 .24.48h1.688a4.56 4.56 0 0 1-4.576 4.575v2.288c3.775 0 6.863-3.089 6.863-6.863h1.688a.3.3 0 0 0 .24-.48l-2.831-3.776a.3.3 0 0 0-.48 0z"/></svg>
